art/logos/fmtowns.svg

<?xml version="1.0" encoding="UTF-8"?>
<!DOCTYPE svg PUBLIC "-//W3C//DTD SVG 1.1//EN" "http://www.w3.org/Graphics/SVG/1.1/DTD/svg11.dtd">
<svg xmlns="http://www.w3.org/2000/svg" version="1.1" width="638px" height="208px" style="shape-rendering:geometricPrecision; text-rendering:geometricPrecision; image-rendering:optimizeQuality; fill-rule:evenodd; clip-rule:evenodd" xmlns:xlink="http://www.w3.org/1999/xlink">
<g><path style="opacity:0.706" fill="#e50212" d="M 307.5,0.5 C 317.954,-1.78302 324.287,2.21698 326.5,12.5C 323.45,24.0253 316.45,27.5253 305.5,23C 303.167,20.6667 300.833,18.3333 298.5,16C 293.542,14.3101 290.542,15.9768 289.5,21C 290.542,26.0232 293.542,27.6899 298.5,26C 300.303,25.3632 301.636,24.1965 302.5,22.5C 303.265,29.5492 299.932,32.3825 292.5,31C 283.232,25.9898 282.232,19.6564 289.5,12C 296.858,9.17777 302.524,11.1778 306.5,18C 315.94,22.5668 320.94,19.9001 321.5,10C 318.798,5.42753 314.798,3.76086 309.5,5C 306.781,6.59671 304.614,8.76338 303,11.5C 302.333,9.16667 302.333,6.83333 303,4.5C 304.667,3.26683 306.167,1.9335 307.5,0.5 Z"/></g>
<g><path style="opacity:0.803" fill="#e50312" d="M 362.5,32.5 C 367.233,32.2232 371.9,32.5565 376.5,33.5C 377.833,35.8333 377.833,38.1667 376.5,40.5C 369.5,35.9532 364.167,37.2865 360.5,44.5C 361.253,46.7534 362.586,48.5867 364.5,50C 369.712,52.1892 374.545,55.0226 379,58.5C 383.617,67.7633 381.117,74.2633 371.5,78C 365.709,80.1192 360.043,79.9526 354.5,77.5C 353.695,75.0846 352.695,72.7513 351.5,70.5C 351.833,70.1667 352.167,69.8333 352.5,69.5C 359.127,74.5932 365.627,74.5932 372,69.5C 372.667,67.5 372.667,65.5 372,63.5C 367.419,61.1268 362.919,58.6268 358.5,56C 352.004,50.8744 350.837,44.7077 355,37.5C 357.479,35.6859 359.979,34.0192 362.5,32.5 Z"/></g>
<g><path style="opacity:0.821" fill="#e50312" d="M 220.5,33.5 C 229.506,33.3336 238.506,33.5002 247.5,34C 248.769,36.1385 248.769,38.3052 247.5,40.5C 242.025,38.6542 236.358,37.9875 230.5,38.5C 230.5,42.8333 230.5,47.1667 230.5,51.5C 235.167,51.5 239.833,51.5 244.5,51.5C 244.808,53.924 244.474,56.2573 243.5,58.5C 239.443,56.6407 235.109,55.974 230.5,56.5C 229.957,63.5081 230.624,70.3414 232.5,77C 232.167,77.5 231.833,78 231.5,78.5C 227.833,77.1667 224.167,77.1667 220.5,78.5C 220.167,78 219.833,77.5 219.5,77C 221.829,62.591 222.163,48.091 220.5,33.5 Z"/></g>
<g><path style="opacity:0.828" fill="#e50212" d="M 285.5,32.5 C 286.097,32.7352 286.43,33.2352 286.5,34C 284.735,45.3585 283.902,56.8585 284,68.5C 278.077,78.9189 269.577,81.7523 258.5,77C 255.244,75.413 253.077,72.913 252,69.5C 251.667,58.8333 251.333,48.1667 251,37.5C 250.5,36.5 250,35.5 249.5,34.5C 253.5,33.1667 257.5,33.1667 261.5,34.5C 261,35.5 260.5,36.5 260,37.5C 259.333,47.1667 259.333,56.8333 260,66.5C 261.915,73.3527 266.081,75.186 272.5,72C 273.701,71.0975 274.535,69.9308 275,68.5C 275.667,57.8333 275.667,47.1667 275,36.5C 274.308,35.9747 273.808,35.3081 273.5,34.5C 277.647,33.833 281.647,33.1663 285.5,32.5 Z"/></g>
<g><path style="opacity:0.807" fill="#e50112" d="M 289.5,32.5 C 293.79,33.1111 298.123,33.7777 302.5,34.5C 302.192,35.3081 301.692,35.9747 301,36.5C 300.667,52.5 300.333,68.5 300,84.5C 297.184,90.1674 292.684,93.8341 286.5,95.5C 286.167,95.1667 285.833,94.8333 285.5,94.5C 287.919,92.2457 289.752,89.579 291,86.5C 291.667,69.5 291.667,52.5 291,35.5C 289.961,34.7562 289.461,33.7562 289.5,32.5 Z"/></g>
<g><path style="opacity:0.83" fill="#e50112" d="M 306.5,32.5 C 310.459,33.1061 314.459,33.7728 318.5,34.5C 317.25,49.3347 317.25,64.0013 318.5,78.5C 314.833,77.1667 311.167,77.1667 307.5,78.5C 307.167,78 306.833,77.5 306.5,77C 307.78,69.9625 308.447,62.7958 308.5,55.5C 308.397,47.7089 307.73,40.0422 306.5,32.5 Z"/></g>
<g><path style="opacity:0.839" fill="#e50112" d="M 321.5,33.5 C 332.187,33.168 342.854,33.5013 353.5,34.5C 352.652,36.4086 352.318,38.4086 352.5,40.5C 348.806,38.9811 345.14,38.3144 341.5,38.5C 340.334,50.4861 340.167,62.4861 341,74.5C 343.127,75.3972 343.627,76.7305 342.5,78.5C 338.833,77.1667 335.167,77.1667 331.5,78.5C 330.255,77.0446 330.422,75.7113 332,74.5C 332.5,62.5046 332.667,50.5046 332.5,38.5C 328.04,37.8847 324.04,38.8847 320.5,41.5C 320.167,41 319.833,40.5 319.5,40C 320.609,37.9534 321.276,35.7867 321.5,33.5 Z"/></g>
<g><path style="opacity:0.824" fill="#e50012" d="M 381.5,33.5 C 385.884,33.1744 390.217,33.5078 394.5,34.5C 393.313,35.5195 392.313,36.6861 391.5,38C 392.321,48.4234 392.821,58.9234 393,69.5C 399.416,75.536 404.416,74.536 408,66.5C 408.667,56.8333 408.667,47.1667 408,37.5C 407.5,36.5 407,35.5 406.5,34.5C 410.5,33.1667 414.5,33.1667 418.5,34.5C 418.192,35.3081 417.692,35.9747 417,36.5C 416.667,47.5 416.333,58.5 416,69.5C 410.879,78.3317 403.379,81.165 393.5,78C 388.946,76.1129 385.779,72.9462 384,68.5C 383.667,57.8333 383.333,47.1667 383,36.5C 381.961,35.7562 381.461,34.7562 381.5,33.5 Z"/></g>
<g><path style="opacity:0.931" fill="#019e71" d="M 245.5,103.5 C 280.309,103.646 299.643,120.979 303.5,155.5C 279.5,155.833 279.5,156.167 303.5,156.5C 302.018,177.981 291.684,193.481 272.5,203C 239.71,212.52 216.543,201.686 203,170.5C 197.484,149.287 202.984,130.787 219.5,115C 227.408,109.207 236.075,105.374 245.5,103.5 Z M 246.5,124.5 C 268.424,123.93 281.091,134.43 284.5,156C 282.65,164.697 278.65,172.364 272.5,179C 255.782,189.964 240.615,188.13 227,173.5C 217.263,156.769 220.096,141.936 235.5,129C 239.053,126.879 242.72,125.379 246.5,124.5 Z"/></g>
<g><path style="opacity:0.91" fill="#009e71" d="M 302.5,105.5 C 309.755,105.187 316.921,105.52 324,106.5C 328.105,122.526 332.271,138.526 336.5,154.5C 328.862,155.497 321.196,155.831 313.5,155.5C 309.837,138.841 306.17,122.174 302.5,105.5 Z"/></g>
<g><path style="opacity:0.927" fill="#009e71" d="M 354.5,105.5 C 361.833,105.5 369.167,105.5 376.5,105.5C 381.485,126.089 386.319,146.089 391,165.5C 391.333,165.833 391.667,166.167 392,166.5C 392.392,163.373 393.225,160.373 394.5,157.5C 401.833,156.167 409.167,156.167 416.5,157.5C 412.568,172.798 408.735,188.131 405,203.5C 396.585,204.483 388.085,204.817 379.5,204.5C 375.834,188.503 372.167,172.503 368.5,156.5C 374.509,156.666 380.509,156.499 386.5,156C 380.175,155.5 373.842,155.334 367.5,155.5C 365.428,145.119 364.095,145.119 363.5,155.5C 357.158,155.334 350.825,155.5 344.5,156C 350.491,156.499 356.491,156.666 362.5,156.5C 358.834,172.499 355.167,188.499 351.5,204.5C 342.833,204.5 334.167,204.5 325.5,204.5C 322.572,188.963 318.905,173.296 314.5,157.5C 321.833,156.167 329.167,156.167 336.5,157.5C 337.866,160.692 338.699,164.026 339,167.5C 344.625,146.953 349.792,126.286 354.5,105.5 Z"/></g>
<g><path style="opacity:0.911" fill="#009f71" d="M 407.5,105.5 C 414.5,105.5 421.5,105.5 428.5,105.5C 424.771,121.854 420.938,138.187 417,154.5C 409.558,155.813 402.058,155.813 394.5,154.5C 398.458,138.034 402.791,121.7 407.5,105.5 Z"/></g>
<g><path style="opacity:0.925" fill="#009e71" d="M 437.5,105.5 C 451.171,105.333 464.837,105.5 478.5,106C 480.609,107.141 482.442,108.641 484,110.5C 493.741,133.735 503.075,157.068 512,180.5C 512.5,155.502 512.667,130.502 512.5,105.5C 519.833,105.5 527.167,105.5 534.5,105.5C 533.167,138.167 533.167,170.833 534.5,203.5C 524.161,203.666 513.828,203.5 503.5,203C 502.167,202.333 500.833,201.667 499.5,201C 496.347,196.528 493.847,191.694 492,186.5C 484.215,167.331 476.881,148.331 470,129.5C 466.606,128.544 463.106,128.211 459.5,128.5C 459.5,153.5 459.5,178.5 459.5,203.5C 452.167,203.5 444.833,203.5 437.5,203.5C 438.833,170.833 438.833,138.167 437.5,105.5 Z"/></g>
<g><path style="opacity:0.938" fill="#009f71" d="M 560.5,105.5 C 584.167,105.5 607.833,105.5 631.5,105.5C 631.5,112.5 631.5,119.5 631.5,126.5C 609.831,126.333 588.164,126.5 566.5,127C 565.167,128.333 565.167,129.667 566.5,131C 581.5,131.333 596.5,131.667 611.5,132C 622.941,134.613 630.274,141.446 633.5,152.5C 609.498,152.667 585.498,152.5 561.5,152C 546.134,145.571 540.967,134.405 546,118.5C 549.329,112.43 554.162,108.096 560.5,105.5 Z"/></g>
<g><path style="opacity:0.925" fill="#009e71" d="M 113.5,106.5 C 143.5,106.5 173.5,106.5 203.5,106.5C 203.5,113.5 203.5,120.5 203.5,127.5C 192.5,127.5 181.5,127.5 170.5,127.5C 170.5,136.833 170.5,146.167 170.5,155.5C 141.167,155.833 141.167,156.167 170.5,156.5C 170.5,172.833 170.5,189.167 170.5,205.5C 162.248,205.816 154.081,205.482 146,204.5C 145.833,196.5 145.667,188.5 145.5,180.5C 145.516,172.1 146.183,163.934 147.5,156C 145.543,146.763 144.876,137.263 145.5,127.5C 134.828,127.667 124.161,127.5 113.5,127C 113.487,120.107 113.487,113.274 113.5,106.5 Z"/></g>
<g><path style="opacity:0.949" fill="#0b9d71" d="M 609.5,154.5 C 618.235,153.172 627.068,153.172 636,154.5C 640.834,178.344 632,194.511 609.5,203C 587.503,203.5 565.503,203.667 543.5,203.5C 543.169,195.804 543.503,188.138 544.5,180.5C 545.086,180.291 545.586,179.957 546,179.5C 563.868,179.187 581.868,179.521 600,180.5C 613.398,178.043 617.731,170.377 613,157.5C 611.961,156.29 610.794,155.29 609.5,154.5 Z"/></g>
<g><path style="opacity:0.906" fill="#009f71" d="M 1.5,154.5 C 19.5,154.5 37.5,154.5 55.5,154.5C 55.5,160.833 55.5,167.167 55.5,173.5C 51.8333,173.5 48.1667,173.5 44.5,173.5C 44.5,170.833 44.5,168.167 44.5,165.5C 36.8333,165.5 29.1667,165.5 21.5,165.5C 21.5,168.833 21.5,172.167 21.5,175.5C 27.5,175.5 33.5,175.5 39.5,175.5C 39.7839,178.777 39.4505,181.943 38.5,185C 32.8431,185.499 27.1764,185.666 21.5,185.5C 21.5,188.5 21.5,191.5 21.5,194.5C 23.5,194.5 25.5,194.5 27.5,194.5C 27.7892,198.106 27.4558,201.606 26.5,205C 18.5,205.667 10.5,205.667 2.5,205C 1.54416,201.606 1.21083,198.106 1.5,194.5C 2.83333,194.5 4.16667,194.5 5.5,194.5C 5.5,184.833 5.5,175.167 5.5,165.5C 4.16667,165.5 2.83333,165.5 1.5,165.5C 1.5,161.833 1.5,158.167 1.5,154.5 Z"/></g>
<g><path style="opacity:0.891" fill="#009e71" d="M 80.5,153.5 C 82.7957,155.401 84.629,157.734 86,160.5C 89.0767,167.652 92.41,174.652 96,181.5C 100.055,172.56 104.221,163.727 108.5,155C 115.826,154.5 123.159,154.334 130.5,154.5C 130.5,158.167 130.5,161.833 130.5,165.5C 129.167,165.5 127.833,165.5 126.5,165.5C 126.5,175.167 126.5,184.833 126.5,194.5C 127.833,194.5 129.167,194.5 130.5,194.5C 130.789,198.106 130.456,201.606 129.5,205C 121.784,205.8 114.117,205.633 106.5,204.5C 105.345,201.554 105.179,198.554 106,195.5C 107.399,194.773 108.899,194.273 110.5,194C 109.419,189.174 109.252,184.341 110,179.5C 105.876,188.25 101.376,196.75 96.5,205C 93.975,205.896 91.8083,205.396 90,203.5C 86.606,195.712 82.9394,188.045 79,180.5C 78.5008,185.155 78.3342,189.821 78.5,194.5C 80.1439,194.286 81.6439,194.62 83,195.5C 84.9941,204.337 81.4941,207.671 72.5,205.5C 69.2478,205.479 66.0811,205.146 63,204.5C 62.5017,201.183 62.335,197.85 62.5,194.5C 63.8333,194.5 65.1667,194.5 66.5,194.5C 66.5,184.833 66.5,175.167 66.5,165.5C 64.5,165.5 62.5,165.5 60.5,165.5C 60.5,161.833 60.5,158.167 60.5,154.5C 67.3543,154.824 74.021,154.491 80.5,153.5 Z"/></g>
</svg>

<svg xmlns="http://www.w3.org/2000/svg" width="638" height="208" style="shape-rendering:geometricPrecision;text-rendering:geometricPrecision;image-rendering:optimizeQuality;fill-rule:evenodd;clip-rule:evenodd">
    <path style="opacity:.706" fill="#e50212" d="M307.5.5c10.454-2.283 16.787 1.717 19 12-3.05 11.525-10.05 15.025-21 10.5l-7-7c-4.958-1.69-7.958-.023-9 5 1.042 5.023 4.042 6.69 9 5 1.803-.637 3.136-1.803 4-3.5.765 7.05-2.568 9.883-10 8.5-9.268-5.01-10.268-11.344-3-19 7.358-2.822 13.024-.822 17 6 9.44 4.567 14.44 1.9 15-8-2.702-4.572-6.702-6.24-12-5-2.719 1.597-4.886 3.763-6.5 6.5a12.494 12.494 0 0 1 0-7 32.578 32.578 0 0 0 4.5-4Z"/>
    <path style="opacity:.803" fill="#e50312" d="M362.5 32.5c4.733-.277 9.4.056 14 1 1.333 2.333 1.333 4.667 0 7-7-4.547-12.333-3.214-16 4 .753 2.253 2.086 4.087 4 5.5a63.303 63.303 0 0 1 14.5 8.5c4.617 9.263 2.117 15.763-7.5 19.5-5.791 2.12-11.457 1.953-17-.5a45.773 45.773 0 0 0-3-7l1-1c6.627 5.093 13.127 5.093 19.5 0 .667-2 .667-4 0-6a264.738 264.738 0 0 1-13.5-7.5c-6.496-5.126-7.663-11.292-3.5-18.5a100.844 100.844 0 0 1 7.5-5Z"/>
    <path style="opacity:.821" fill="#e50312" d="M220.5 33.5c9.006-.166 18.006 0 27 .5 1.269 2.139 1.269 4.305 0 6.5-5.475-1.846-11.142-2.513-17-2v13h14a13.115 13.115 0 0 1-1 7c-4.057-1.86-8.391-2.526-13-2-.543 7.008.124 13.841 2 20.5l-1 1.5c-3.667-1.333-7.333-1.333-11 0l-1-1.5c2.329-14.409 2.663-28.909 1-43.5Z"/>
    <path style="opacity:.828" fill="#e50212" d="M285.5 32.5c.597.235.93.735 1 1.5a212.656 212.656 0 0 0-2.5 34.5c-5.923 10.419-14.423 13.252-25.5 8.5-3.256-1.587-5.423-4.087-6.5-7.5l-1-32-1.5-3c4-1.333 8-1.333 12 0l-1.5 3a210.395 210.395 0 0 0 0 29c1.915 6.853 6.081 8.686 12.5 5.5a6.977 6.977 0 0 0 2.5-3.5 256.122 256.122 0 0 0 0-32 4.458 4.458 0 0 1-1.5-2 1035.16 1035.16 0 0 0 12-2Z"/>
    <path style="opacity:.807" fill="#e50112" d="M289.5 32.5a596.48 596.48 0 0 1 13 2 4.458 4.458 0 0 1-1.5 2l-1 48c-2.816 5.667-7.316 9.334-13.5 11l-1-1a22.205 22.205 0 0 0 5.5-8c.667-17 .667-34 0-51-1.039-.744-1.539-1.744-1.5-3Z"/>
    <path style="opacity:.83" fill="#e50112" d="M306.5 32.5c3.959.606 7.959 1.273 12 2-1.25 14.835-1.25 29.501 0 44-3.667-1.333-7.333-1.333-11 0l-1-1.5a124.998 124.998 0 0 0 2-21.5 155.47 155.47 0 0 0-2-23Z"/>
    <path style="opacity:.839" fill="#e50112" d="M321.5 33.5a256.885 256.885 0 0 1 32 1 11.987 11.987 0 0 0-1 6c-3.694-1.519-7.36-2.186-11-2a216.504 216.504 0 0 0-.5 36c2.127.897 2.627 2.23 1.5 4-3.667-1.333-7.333-1.333-11 0-1.245-1.455-1.078-2.789.5-4 .5-11.995.667-23.995.5-36-4.46-.615-8.46.385-12 3l-1-1.5a16.993 16.993 0 0 0 2-6.5Z"/>
    <path style="opacity:.824" fill="#e50012" d="M381.5 33.5a43.123 43.123 0 0 1 13 1 14.984 14.984 0 0 0-3 3.5 511.25 511.25 0 0 1 1.5 31.5c6.416 6.036 11.416 5.036 15-3 .667-9.667.667-19.333 0-29l-1.5-3c4-1.333 8-1.333 12 0a4.458 4.458 0 0 1-1.5 2l-1 33c-5.121 8.832-12.621 11.665-22.5 8.5-4.554-1.887-7.721-5.054-9.5-9.5l-1-32c-1.039-.744-1.539-1.744-1.5-3Z"/>
    <path style="opacity:.931" fill="#019e71" d="M245.5 103.5c34.809.146 54.143 17.479 58 52-24 .333-24 .667 0 1-1.482 21.481-11.816 36.981-31 46.5-32.79 9.52-55.957-1.314-69.5-32.5-5.516-21.213-.016-39.713 16.5-55.5 7.908-5.793 16.575-9.626 26-11.5Zm1 21c21.924-.57 34.591 9.93 38 31.5-1.85 8.697-5.85 16.364-12 23-16.718 10.964-31.885 9.13-45.5-5.5-9.737-16.731-6.904-31.564 8.5-44.5 3.553-2.121 7.22-3.621 11-4.5Z"/>
    <path style="opacity:.91" fill="#009e71" d="M302.5 105.5c7.255-.313 14.421.02 21.5 1a6161.32 6161.32 0 0 0 12.5 48 133.155 133.155 0 0 1-23 1c-3.663-16.659-7.33-33.326-11-50Z"/>
    <path style="opacity:.927" fill="#009e71" d="M354.5 105.5h22a67628.64 67628.64 0 0 1 14.5 60l1 1a31.827 31.827 0 0 1 2.5-9 61.015 61.015 0 0 1 22 0 3597.156 3597.156 0 0 0-11.5 46 166.506 166.506 0 0 1-25.5 1l-11-48c6.009.166 12.009-.001 18-.5-6.325-.5-12.658-.666-19-.5-2.072-10.381-3.405-10.381-4 0-6.342-.166-12.675 0-19 .5 5.991.499 11.991.666 18 .5l-11 48h-26c-2.928-15.537-6.595-31.204-11-47a61.015 61.015 0 0 1 22 0 32.357 32.357 0 0 1 2.5 10 1436.898 1436.898 0 0 0 15.5-62Z"/>
    <path style="opacity:.911" fill="#009f71" d="M407.5 105.5h21a3967.43 3967.43 0 0 1-11.5 49c-7.442 1.313-14.942 1.313-22.5 0 3.958-16.466 8.291-32.8 13-49Z"/>
    <path style="opacity:.925" fill="#009e71" d="M437.5 105.5a840.27 840.27 0 0 1 41 .5 18.778 18.778 0 0 1 5.5 4.5 2280.683 2280.683 0 0 1 28 70c.5-24.998.667-49.998.5-75h22a1201.3 1201.3 0 0 0 0 98c-10.339.166-20.672 0-31-.5l-4-2a59.83 59.83 0 0 1-7.5-14.5 1724.301 1724.301 0 0 1-22-57c-3.394-.956-6.894-1.289-10.5-1v75h-22a1201.3 1201.3 0 0 0 0-98Z"/>
    <path style="opacity:.938" fill="#009f71" d="M560.5 105.5h71v21c-21.669-.167-43.336 0-65 .5-1.333 1.333-1.333 2.667 0 4l45 1c11.441 2.613 18.774 9.446 22 20.5-24.002.167-48.002 0-72-.5-15.366-6.429-20.533-17.595-15.5-33.5 3.329-6.07 8.162-10.404 14.5-13Z"/>
    <path style="opacity:.925" fill="#009e71" d="M113.5 106.5h90v21h-33v28c-29.333.333-29.333.667 0 1v49a153.949 153.949 0 0 1-24.5-1l-.5-24c.016-8.4.683-16.566 2-24.5-1.957-9.237-2.624-18.737-2-28.5-10.672.167-21.339 0-32-.5-.013-6.893-.013-13.726 0-20.5Z"/>
    <path style="opacity:.949" fill="#0b9d71" d="M609.5 154.5c8.735-1.328 17.568-1.328 26.5 0 4.834 23.844-4 40.011-26.5 48.5-21.997.5-43.997.667-66 .5a133.155 133.155 0 0 1 1-23 3.647 3.647 0 0 0 1.5-1 755.797 755.797 0 0 1 54 1c13.398-2.457 17.731-10.123 13-23a14.698 14.698 0 0 0-3.5-3Z"/>
    <path style="opacity:.906" fill="#009f71" d="M1.5 154.5h54v19h-11v-8h-23v10h18c.284 3.277-.05 6.443-1 9.5a145.05 145.05 0 0 1-17 .5v9h6c.29 3.606-.044 7.106-1 10.5-8 .667-16 .667-24 0-.956-3.394-1.29-6.894-1-10.5h4v-29h-4v-11Z"/>
    <path style="opacity:.891" fill="#009e71" d="M80.5 153.5c2.296 1.901 4.129 4.234 5.5 7a303.631 303.631 0 0 0 10 21 975.188 975.188 0 0 1 12.5-26.5 242.43 242.43 0 0 1 22-.5v11h-4v29h4c.289 3.606-.044 7.106-1 10.5-7.716.8-15.383.633-23-.5-1.155-2.946-1.321-5.946-.5-9a15.256 15.256 0 0 1 4.5-1.5 38.718 38.718 0 0 1-.5-14.5A308.997 308.997 0 0 1 96.5 205c-2.525.896-4.692.396-6.5-1.5a363.118 363.118 0 0 0-11-23 98.432 98.432 0 0 0-.5 14c1.644-.214 3.144.12 4.5 1 1.994 8.837-1.506 12.171-10.5 10a47.682 47.682 0 0 1-9.5-1 50.442 50.442 0 0 1-.5-10h4v-29h-6v-11c6.854.324 13.521-.009 20-1Z"/>
</svg>
